src/assets/images/love-icon.svg

<svg width="73" height="14" viewBox="0 0 73 14" fill="none" xmlns="http://www.w3.org/2000/svg">
<path d="M19.093 1.58605V11.5426C19.0921 11.739 19.052 11.9333 18.9751 12.1142C18.8981 12.2951 18.7858 12.459 18.6447 12.5966C18.5036 12.7342 18.3364 12.8426 18.1528 12.9157C17.9692 12.9888 17.7729 13.025 17.5751 13.0223C16.7108 13.0223 16.1871 12.3466 16.1871 11.5426V11.2305C15.0616 12.1923 13.7524 12.7644 12.1813 12.7644C10.5044 12.7644 8.89616 12.103 7.71041 10.9256C6.52467 9.7483 5.85852 8.15149 5.85852 6.48648C5.85852 4.82148 6.52467 3.22467 7.71041 2.04733C8.89616 0.86999 10.5044 0.208569 12.1813 0.208569C13.7524 0.208569 15.0616 0.806063 16.1871 1.7164V1.58605C16.1871 0.779993 16.7108 0.106403 17.5751 0.106403C17.7729 0.103702 17.9692 0.139928 18.1528 0.21299C18.3364 0.286052 18.5036 0.394502 18.6447 0.532077C18.7858 0.669651 18.8981 0.833624 18.9751 1.01453C19.052 1.19543 19.0921 1.38967 19.093 1.58605ZM15.4519 6.49917C15.4471 5.63881 15.1007 4.81506 14.488 4.20668C13.8753 3.59831 13.0457 3.2544 12.1792 3.24959C10.3724 3.24959 8.8801 4.70598 8.8801 6.49917C8.8801 8.29235 10.3703 9.72268 12.1792 9.72268C13.9617 9.72338 15.4519 8.29306 15.4519 6.49917Z" fill="#1A1A1B"/>
<path d="M40.9814 5.14772V11.5426C40.9814 12.4262 40.3009 13.1026 39.4365 13.1026C39.2284 13.1046 39.022 13.0658 38.829 12.9885C38.636 12.9111 38.4603 12.7967 38.312 12.6518C38.1636 12.5068 38.0456 12.3342 37.9646 12.1439C37.8835 11.9536 37.8412 11.7492 37.8399 11.5426V5.07303C37.8399 4.05912 36.923 3.27914 35.8494 3.27914C34.6977 3.27914 33.7815 4.05912 33.7815 5.07303V11.5461C33.7952 11.7576 33.765 11.9696 33.6929 12.169C33.6208 12.3685 33.5082 12.5511 33.3622 12.7057C33.2162 12.8602 33.0398 12.9834 32.844 13.0676C32.6481 13.1519 32.437 13.1953 32.2235 13.1953C32.0101 13.1953 31.799 13.1519 31.6031 13.0676C31.4073 12.9834 31.2309 12.8602 31.0849 12.7057C30.9389 12.5511 30.8263 12.3685 30.7542 12.169C30.6821 11.9696 30.6519 11.7576 30.6656 11.5461V5.07303C30.6656 4.05912 29.7494 3.27914 28.6233 3.27914C27.4971 3.27914 26.581 4.0556 26.581 5.07303V11.6257C26.5792 11.8286 26.5372 12.0291 26.4572 12.2158C26.3773 12.4025 26.2611 12.5717 26.1152 12.7137C25.9693 12.8557 25.7967 12.9678 25.6071 13.0435C25.4176 13.1191 25.2149 13.1569 25.0106 13.1547C24.1725 13.1547 23.4395 12.4501 23.4395 11.6208V1.69099C23.4395 0.832794 24.1725 0.10495 25.0106 0.10495C25.5073 0.10495 25.9792 0.364944 26.2169 0.729219C26.9637 0.35415 27.7886 0.158193 28.6254 0.15709C29.9653 0.154219 31.2565 0.655761 32.2388 1.56064C33.1528 0.676374 34.4095 0.156385 35.8494 0.156385C38.651 0.156385 40.9814 2.36599 40.9814 5.06951V5.14772Z" fill="#1A1A1B"/>
<path d="M72.5058 4.05563C72.365 4.20609 72.1957 4.32749 72.0076 4.41287C71.8195 4.49825 71.6162 4.54594 71.4095 4.5532C71.2028 4.56047 70.9966 4.52716 70.8029 4.4552C70.6091 4.38324 70.4316 4.27404 70.2804 4.13384C69.693 3.58208 68.9148 3.27494 68.1062 3.27565C66.3257 3.27565 64.8596 4.78348 64.8596 6.62951V11.5426C64.8596 11.9564 64.6941 12.3531 64.3995 12.6457C64.1048 12.9382 63.7052 13.1026 63.2885 13.1026C62.8718 13.1026 62.4722 12.9382 62.1776 12.6457C61.8829 12.3531 61.7174 11.9564 61.7174 11.5426V1.58604C61.724 1.21792 61.8614 0.863966 62.1054 0.586686C62.3493 0.309408 62.6841 0.126643 63.0506 0.070672C63.4171 0.0147007 63.7917 0.0891235 64.1083 0.280796C64.4249 0.472469 64.6631 0.769061 64.7809 1.11819C65.957 0.377983 67.3488 0.050057 68.7345 0.186696C70.1201 0.323334 71.4198 0.91667 72.4264 1.8721C72.5777 2.00923 72.7 2.17495 72.7861 2.35957C72.8722 2.54418 72.9203 2.74399 72.9277 2.9473C72.9351 3.15061 72.9016 3.35335 72.8292 3.54365C72.7568 3.73396 72.6468 3.90801 72.5058 4.05563Z" fill="#1A1A1B"/>
<path d="M51.4023 0C47.7889 0 44.8304 2.93815 44.8304 6.52523C44.8314 8.25554 45.5241 9.91471 46.7563 11.1382C47.9886 12.3617 49.6596 13.0495 51.4023 13.0505C55.015 13.0505 57.9741 10.1391 58.0018 6.5513C57.9741 2.93815 55.015 0 51.4023 0ZM51.4023 9.85231C50.7393 9.85245 50.0913 9.65738 49.54 9.29177C48.9887 8.92616 48.559 8.40644 48.3053 7.79834C48.0515 7.19024 47.9851 6.52107 48.1144 5.87548C48.2437 5.22988 48.5629 4.63686 49.0317 4.17142C49.5004 3.70598 50.0977 3.38902 50.7479 3.26064C51.3981 3.13226 52.072 3.19822 52.6845 3.45018C53.2969 3.70214 53.8204 4.12878 54.1886 4.67614C54.5568 5.2235 54.7533 5.86699 54.7531 6.52523C54.7544 6.96251 54.6687 7.39574 54.5007 7.79999C54.3328 8.20424 54.086 8.57153 53.7746 8.88074C53.4632 9.18994 53.0933 9.43497 52.6861 9.60171C52.279 9.76845 51.8427 9.85361 51.4023 9.85231Z" fill="#1A1A1B"/>
<path d="M51.3902 0C47.7768 0 44.8184 2.93815 44.8184 6.52523C44.8324 8.24781 45.5304 9.89531 46.7608 11.1098C47.9913 12.3242 49.6547 13.0075 51.3896 13.0111C53.1245 13.0147 54.7908 12.3384 56.0264 11.1291C57.262 9.91979 57.967 8.27521 57.9883 6.55271C57.962 2.93815 55.0036 0 51.3902 0ZM51.3902 9.85231C50.7273 9.85231 50.0793 9.65712 49.5281 9.29143C48.9769 8.92574 48.5473 8.40597 48.2937 7.79785C48.04 7.18974 47.9737 6.52059 48.1031 5.87504C48.2325 5.2295 48.5517 4.63654 49.0205 4.17117C49.4893 3.7058 50.0866 3.38892 50.7368 3.26059C51.3869 3.13227 52.0609 3.19827 52.6733 3.45025C53.2857 3.70223 53.8091 4.12887 54.1772 4.67622C54.5454 5.22356 54.7419 5.86702 54.7417 6.52523C54.7431 6.96257 54.6573 7.39586 54.4893 7.80015C54.3213 8.20444 54.0745 8.57177 53.763 8.88099C53.4515 9.1902 53.0815 9.43521 52.6743 9.60191C52.2671 9.76861 51.8307 9.85371 51.3902 9.85231Z" fill="#1A1A1B"/>
<rect x="3.23096" y="1.61554" width="3.46177" height="9.92375" rx="1.73089" fill="#47DC56"/>
<rect x="9.92383" y="4.84644" width="3.46177" height="9.92375" rx="1.73089" transform="rotate(90 9.92383 4.84644)" fill="#47DC56"/>
</svg>

<svg width="73" height="14" fill="none" xmlns="http://www.w3.org/2000/svg"><path d="M19.093 1.586v9.957a1.478 1.478 0 01-.448 1.054 1.498 1.498 0 01-1.07.425c-.864 0-1.388-.675-1.388-1.48v-.312c-1.125.962-2.435 1.534-4.006 1.534a6.346 6.346 0 01-4.47-1.838 6.255 6.255 0 01-1.852-4.44c0-1.665.666-3.261 1.851-4.439A6.346 6.346 0 0112.181.21c1.571 0 2.88.597 4.006 1.507v-.13c0-.806.524-1.48 1.388-1.48a1.507 1.507 0 011.07.426 1.488 1.488 0 01.448 1.054zM15.452 6.5a3.256 3.256 0 00-.964-2.292 3.303 3.303 0 00-2.309-.957c-1.807 0-3.299 1.456-3.299 3.25 0 1.792 1.49 3.223 3.3 3.223 1.782 0 3.272-1.43 3.272-3.224zM40.981 5.148v6.395c0 .883-.68 1.56-1.544 1.56a1.593 1.593 0 01-1.125-.451 1.57 1.57 0 01-.472-1.11V5.074c0-1.014-.917-1.794-1.99-1.794-1.152 0-2.069.78-2.069 1.794v6.473a1.54 1.54 0 01-.419 1.16 1.562 1.562 0 01-1.139.49 1.57 1.57 0 01-1.138-.49 1.548 1.548 0 01-.42-1.16V5.073c0-1.014-.916-1.794-2.042-1.794s-2.042.777-2.042 1.794v6.553a1.532 1.532 0 01-.466 1.088 1.555 1.555 0 01-1.104.44c-.838 0-1.572-.704-1.572-1.533V1.69c0-.858.733-1.586 1.572-1.586.496 0 .968.26 1.206.624a5.383 5.383 0 012.408-.572 5.317 5.317 0 013.614 1.404c.914-.885 2.17-1.405 3.61-1.405 2.802 0 5.132 2.21 5.132 4.914v.078zM72.506 4.056a1.572 1.572 0 01-1.097.497 1.583 1.583 0 01-1.129-.42 3.172 3.172 0 00-2.174-.857c-1.78 0-3.246 1.507-3.246 3.354v4.913c0 .413-.166.81-.46 1.103a1.577 1.577 0 01-2.222 0 1.554 1.554 0 01-.46-1.103V1.586c.006-.368.143-.722.387-1a1.575 1.575 0 012.003-.305c.317.191.555.488.673.837a6.27 6.27 0 017.645.754 1.532 1.532 0 01.502 1.075 1.521 1.521 0 01-.422 1.109zM51.402 0C47.79 0 44.83 2.938 44.83 6.525a6.506 6.506 0 001.926 4.613 6.6 6.6 0 004.646 1.912c3.613 0 6.572-2.91 6.6-6.499C57.974 2.938 55.015 0 51.402 0zm0 9.852a3.369 3.369 0 01-1.862-.56 3.332 3.332 0 01-1.235-1.494 3.306 3.306 0 01.727-3.627 3.374 3.374 0 013.653-.721 3.347 3.347 0 011.504 1.226 3.31 3.31 0 01.564 1.85 3.296 3.296 0 01-.978 2.355 3.342 3.342 0 01-2.373.971z" fill="#1A1A1B"/><path d="M51.39 0c-3.613 0-6.572 2.938-6.572 6.525a6.516 6.516 0 001.943 4.585 6.61 6.61 0 004.629 1.901 6.61 6.61 0 004.636-1.882 6.516 6.516 0 001.962-4.576C57.962 2.938 55.004 0 51.39 0zm0 9.852c-.663 0-1.31-.195-1.862-.56a3.332 3.332 0 01-1.234-1.494 3.305 3.305 0 01.727-3.627 3.374 3.374 0 013.653-.72 3.346 3.346 0 011.503 1.225 3.31 3.31 0 01.565 1.85 3.295 3.295 0 01-.979 2.355 3.343 3.343 0 01-2.373.971z" fill="#1A1A1B"/><rect x="3.231" y="1.616" width="3.462" height="9.924" rx="1.731" fill="#47DC56"/><rect x="9.924" y="4.846" width="3.462" height="9.924" rx="1.731" transform="rotate(90 9.924 4.846)" fill="#47DC56"/></svg>
